theme/black/ui-light-plain-monochrom-state-sync.svg

<?xml version="1.0" encoding="UTF-8" standalone="no"?>
<svg
   width="512"
   height="512"
   viewBox="0 0 32 32"
   fill="none"
   version="1.1"
   id="svg2760"
   sodipodi:docname="ui-light-plain-monochrom-state-sync.svg"
   inkscape:version="1.1 (c68e22c387, 2021-05-23)"
   xmlns:inkscape="http://www.inkscape.org/namespaces/inkscape"
   xmlns:sodipodi="http://sodipodi.sourceforge.net/DTD/sodipodi-0.dtd"
   xmlns="http://www.w3.org/2000/svg"
   xmlns:svg="http://www.w3.org/2000/svg">
  <sodipodi:namedview
     id="namedview2762"
     pagecolor="#ffffff"
     bordercolor="#666666"
     borderopacity="1.0"
     inkscape:pageshadow="2"
     inkscape:pageopacity="0.0"
     inkscape:pagecheckerboard="0"
     showgrid="false"
     inkscape:zoom="0.890625"
     inkscape:cx="255.4386"
     inkscape:cy="256"
     inkscape:window-width="1366"
     inkscape:window-height="706"
     inkscape:window-x="-8"
     inkscape:window-y="-8"
     inkscape:window-maximized="1"
     inkscape:current-layer="svg2760" />
  <defs
     id="defs2758">
    <clipPath
       id="clip0">
      <rect
         width="32"
         height="32"
         fill="white"
         id="rect2755" />
    </clipPath>
    <clipPath
       clipPathUnits="userSpaceOnUse"
       id="clipPath4347">
      <circle
         style="display:none;fill:#ff0000;fill-opacity:1;stroke-width:0.193737"
         id="circle4349"
         cx="17.999962"
         cy="23.499962"
         r="10.455049"
         d="M 28.45501,23.499962 A 10.455049,10.455049 0 0 1 17.999962,33.95501 10.455049,10.455049 0 0 1 7.5449133,23.499962 10.455049,10.455049 0 0 1 17.999962,13.044913 10.455049,10.455049 0 0 1 28.45501,23.499962 Z" />
      <path
         id="lpe_path-effect4351"
         style="fill:#ff0000;fill-opacity:1;stroke-width:0.193737"
         class="powerclip"
         d="M -5,-5 H 36.999606 V 26.33307 H -5 Z M 28.45501,23.499962 A 10.455049,10.455049 0 0 0 17.999962,13.044913 10.455049,10.455049 0 0 0 7.5449133,23.499962 10.455049,10.455049 0 0 0 17.999962,33.95501 10.455049,10.455049 0 0 0 28.45501,23.499962 Z" />
    </clipPath>
    <inkscape:path-effect
       effect="powerclip"
       id="path-effect4351"
       is_visible="true"
       lpeversion="1"
       inverse="true"
       flatten="false"
       hide_clip="false"
       message="Utilice la regla de relleno parimpar en el diálogo &lt;b&gt;Relleno y borde&lt;/b&gt; si el resultado no está aplanada después de convertir el recorte en trayectos." />
  </defs>
  <g
     id="g2953">
    <path
       fill-rule="evenodd"
       clip-rule="evenodd"
       d="m 18,15 c 4.6939,0 8.5,3.8051 8.5,8.4995 0,4.6939 -3.8061,8.499 -8.5,8.499 -4.6939,0 -8.5,-3.8051 -8.5,-8.499 C 9.5,18.8051 13.3061,15 18,15 Z m -2.28,8.772 -0.9752,0.1616 -1.8128,0.3184 0.252,2.818 0.5787,-0.7524 0.1183,0.1608 0.1527,0.1976 c 0.9934,1.2247 2.478,1.9387 4.0595,1.9387 0.3024,0 0.6079,-0.027 0.909,-0.08 1.0639,-0.1873 2.0293,-0.6912 2.7927,-1.4572 0.6829,-0.6862 1.1581,-1.5341 1.3839,-2.4651 L 23.245,24.3 l -1.83,0.322 -0.008,0.0221 -0.0844,0.2013 c -0.4517,0.9901 -1.3439,1.7272 -2.3997,1.9826 l -0.2133,0.0446 -0.2045,0.0301 c -0.1371,0.016 -0.2754,0.0241 -0.4125,0.0241 -1.2717,0 -2.4461,-0.6906 -3.0731,-1.7883 l -0.0994,-0.1867 0.0155,-0.1579 z m 2.3765,-5.622 c -0.3018,0 -0.6079,0.0271 -0.9116,0.0805 -2.0627,0.3632 -3.7203,1.9489 -4.1903,3.9799 l -0.0576,0.2816 1.825,-0.322 0.0077,-0.02 0.0788,-0.1932 c 0.4488,-1.0143 1.3522,-1.7676 2.4265,-2.0233 l 0.2034,-0.042 0.2052,-0.0303 c 0.1372,-0.0162 0.2751,-0.0244 0.4119,-0.0244 1.2792,0 2.457,0.6959 3.0814,1.8022 l 0.0988,0.1882 -0.0159,0.1572 -0.7888,1.0256 2.803,-0.491 -0.268,-2.806 -0.5728,0.7442 -0.118,-0.1613 -0.1524,-0.1985 C 21.1708,18.8673 19.6836,18.15 18.0965,18.15 Z"
       fill="#041e42"
       id="path2751" />
    <path
       d="M 25.799682,8.053234 C 24.893027,3.453291 20.853076,0 15.999803,0 12.146517,0 8.799891,2.18664 7.133245,5.3866 3.119961,5.813262 0,9.21322 0,13.333169 0,17.746448 3.586622,21.33307 7.999901,21.33307 h 17.33312 c 3.679955,0 6.666585,-2.986629 6.666585,-6.666584 0,-3.519957 -2.7333,-6.373255 -6.199924,-6.613252 z"
       id="path121"
       style="fill:#041e42;fill-opacity:1;stroke-width:1.33332"
       clip-path="url(#clipPath4347)"
       inkscape:path-effect="#path-effect4351"
       inkscape:original-d="M 25.799682,8.053234 C 24.893027,3.453291 20.853076,0 15.999803,0 12.146517,0 8.799891,2.18664 7.133245,5.3866 3.119961,5.813262 0,9.21322 0,13.333169 0,17.746448 3.586622,21.33307 7.999901,21.33307 h 17.33312 c 3.679955,0 6.666585,-2.986629 6.666585,-6.666584 0,-3.519957 -2.7333,-6.373255 -6.199924,-6.613252 z"
       transform="translate(1.97e-4)" />
  </g>
</svg>

<svg width="512" height="512" viewBox="0 0 32 32" fill="none" xmlns="http://www.w3.org/2000/svg">
<g clip-path="url(#clip0)">
<path fill-rule="evenodd" clip-rule="evenodd" d="M29.4355 12.415C29.2175 12.415 29.0075 12.446 28.8055 12.498C28.5515 9.994 26.4905 8.042 23.9855 8.042C23.9595 8.042 23.9355 8.044 23.9115 8.044C23.8365 5.567 21.8605 3.582 19.4295 3.582C19.2475 3.582 19.0685 3.595 18.8915 3.616C18.4515 1.548 16.6585 0 14.5125 0C12.7495 0 11.2265 1.044 10.4935 2.563C10.0755 2.222 9.5485 2.018 8.9735 2.018C7.6215 2.018 6.5255 3.144 6.5255 4.532C6.5255 5.073 6.6935 5.573 6.9765 5.983C6.0145 6.601 5.2785 7.556 4.9255 8.687C4.7805 8.673 4.6335 8.665 4.4845 8.665C2.0075 8.665 -0.00050354 10.727 -0.00050354 13.27C-0.00050354 15.814 2.0075 18 4.4845 18H9.0725C10.9245 15.006 14.2275 13 17.9995 13C21.7715 13 25.0755 15.006 26.9275 18H29.4355C30.8515 18 31.9995 16.503 31.9995 15.049C31.9995 13.594 30.8515 12.415 29.4355 12.415Z" fill="#041E42"/>
<path fill-rule="evenodd" clip-rule="evenodd" d="M18 15C22.6939 15 26.5 18.8051 26.5 23.4995C26.5 28.1934 22.6939 31.9985 18 31.9985C13.3061 31.9985 9.5 28.1934 9.5 23.4995C9.5 18.8051 13.3061 15 18 15ZM15.72 23.772L14.7448 23.9336L12.932 24.252L13.184 27.07L13.7627 26.3176L13.881 26.4784L14.0337 26.676C15.0271 27.9007 16.5117 28.6147 18.0932 28.6147C18.3956 28.6147 18.7011 28.5877 19.0022 28.5347C20.0661 28.3474 21.0315 27.8435 21.7949 27.0775C22.4778 26.3913 22.953 25.5434 23.1788 24.6124L23.245 24.3L21.415 24.622L21.407 24.6441L21.3226 24.8454C20.8709 25.8355 19.9787 26.5726 18.9229 26.828L18.7096 26.8726L18.5051 26.9027C18.368 26.9187 18.2297 26.9268 18.0926 26.9268C16.8209 26.9268 15.6465 26.2362 15.0195 25.1385L14.9201 24.9518L14.9356 24.7939L15.72 23.772ZM18.0965 18.15C17.7947 18.15 17.4886 18.1771 17.1849 18.2305C15.1222 18.5937 13.4646 20.1794 12.9946 22.2104L12.937 22.492L14.762 22.17L14.7697 22.15L14.8485 21.9568C15.2973 20.9425 16.2007 20.1892 17.275 19.9335L17.4784 19.8915L17.6836 19.8612C17.8208 19.845 17.9587 19.8368 18.0955 19.8368C19.3747 19.8368 20.5525 20.5327 21.1769 21.639L21.2757 21.8272L21.2598 21.9844L20.471 23.01L23.274 22.519L23.006 19.713L22.4332 20.4572L22.3152 20.2959L22.1628 20.0974C21.1708 18.8673 19.6836 18.15 18.0965 18.15Z" fill="#041E42"/>
</g>
<defs>
<clipPath id="clip0">
<rect width="32" height="32" fill="white"/>
</clipPath>
</defs>
</svg>
